X: 23
T:kerbystlet
M:3/4
L:1/16
R:Polska
K:D
|:d4A3G FGFE|DEFG A2AB A2ef|g2e2 f2d2 edcB|A3c ecAc e2ef|g2ge fafd e2e2|
A
3c ecAc e2ef|g2ge fafd e2e2|Acec d2(3edc) d4:||d3f afdf a4|a3f dfaf g4|g
ec
e A2g2(3g2f2g2)|f2af dfaf d3a|f2 df a4 a4|a3f dfaf g4|gec
e A2g2(3g2f2g2)|f2af dfaf d4
:Adfd Adfd Adfd|Acec Acec Acec|Adfd Adfd Adfd|Acec Acec Acec|
A3G FDFA dAdf|ecAc d2(3edc) d4:|
